!!!COM: Music21
!!!OTL: Polca
!!!OMV: pezas_polca_polca-5_polca-partitura.musicxml
**kern
*I"Bagpipes
*I'Bag
*clefG^2
*k[]
*M2/4
=1
!LO:TX:a:t=Vivace
*MM140
!LO:TX:a:t=[quarter]=140
4r
8cccL
16bbL
16aaJJ
=||
8ggL
8ccJ
8ddL
8ffJ
=
16eeLL
16ddJ
8ccJ
8cccL
16bbL
16aaJJ
=
8ggL
8ccJ
4dd
=
4dd
8cccL
16bbL
16aaJJ
=
8ggL
8ccJ
8ddL
8ffJ
=
16eeLL
16ddJ
8ccJ
8eeL
16ddL
16ccJJ
=
8ddL
8bJ
4cc
=
4cc
8cccL
16bbL
16aaJJ
!!linebreak:original
=||
8ggL
8ccJ
8ddL
8ffJ
=
16eeLL
16ddJ
8ccJ
8cccL
16bbL
16aaJJ
=
8ggL
8ccJ
4dd
=
4dd
8cccL
16bbL
16aaJJ
=
8ggL
8ccJ
8ddL
8ffJ
=
16eeLL
16ddJ
8ccJ
8eeL
16ddL
16ccJJ
=
8ddL
8bJ
4cc
!!linebreak:original
=
4cc
8ccL
16ccL
16ddJJ
=||
*k[b-e-a-]
*E-:
8ee-L
8ccJ
8ee-L
8ffJ
=
4gg
8ggL
8aa-J
=
8aa-L
8ffJ
4gg
=
4gg
8ccL
16ccL
16ddJJ
=
8ee-L
8ccJ
8ee-L
8ffJ
=
4gg
8ggL
16ffL
16ee-JJ
=
8ddL
8bnJ
4cc
=
4cc
8ccL
16ccL
16ddJJ
!!linebreak:original
=
*k[]
*C:
4cc
8cccL
16bbL
16aaJJ
==
*-
